!!!ONB: MCCC : IJH0409_03 : Extracted Monophonic Melody
!!!COM: Haydn, Joseph
!!!OPR: String Quartet in B-flat major
!!!OMV: 3
!!!SCT: Hob.III:40 ; Op.33 No.4
!!!ODT: 1781///
**kern
*thru
*k[b-e-a-]
*E-:
*clefG
*M3/4
8.gg
32ff
32gg
8aa-
8r
8ff
8r
=1
8.bb-
16eee-
8ddd
16ccc
16bb-
8aa-
16gg
16ff
=2
4ee-
4ff
8.aa-
32bb-
32ccc
=3
4ee-
8dd
8.r
16dd
16ee-
16ff
=4
8.gg
32ff
32gg
8aa-
8r
8ff
8r
=5
12..bb-[
96bb-]
32ccc
32ddd
32eee-
8ddd
16ccc
16bb-
8aa-
16gg
16ff
=6
8ee-
8ee
16ff
16gg
16aa-
16ff
8ee-
8dd
=7
4ff
8ee-
4.r
=8
8.gg
32ff
32gg
16aa-
16gg
16ccc
16bb
16ddd
16aa-
16gg
16ff
=9
16ff
16ee-
16dd
16cc
16b
16cc
16b-
16a-
16g
16f
16e-
16d
=10
16c
16d
16c
16B
16c
16d
16c
16B
16c
16d
16c
16B
=11
16c
16d-
16c
16B
16c
16d-
16c
16B
16c
16d
16c
16B-
=12
16B-
16A
16c
16e
4f
4r
=13
8.b-
32a
32b-
8cc
8r
8a
8r
=14
8.dd
32cc
32dd
8ee-
8r
8cc
8r
=15
8.ff
32ff
32gg
4aa-
32gg
32ee-
32dd
32cc
32gg
32ee-
32dd
32cc
=16
32ff
32dd
32cc
32b-
32ee-
32cc
32ee-
32cc
8b-
8r
8a
8r
=17
8.b-
32a
32b-
8cc
8r
8a
8r
=18
8.dd-
32cc
32dd-
8ee-
8r
8cc
8r
=19
8.ff
32ee-
32ff
4gg-
8ee-
8cc
=20
8.aa-
32gg-
32aa-
8bb-
8gg-
8ee-
8cc
=21
4dd-
2r
=22
2.dd
=23
2.ee-
=24
16ee-
16ff
16ee-
16dd
16ee-
16gg-
16ff
16ee-
16dd
16ccc
16bb-
16aa-
=25
8.gg
32ff
32gg
8aa-
8r
8ff
8r
=26
8.bb-
16eee-
8ddd
16ccc
16bb-
8aa-
16gg
16ff
=27
4ee-
4ff
8.aa-
32bb-
32ccc
=28
4ee-
8dd
8.r
16dd
16ee-
16ff
=29
8.gg
32ff
32gg
8aa-
8r
8ff
8r
=30
12..bb-[
96bb-]
32ccc
32ddd
32eee-
8ddd
16ccc
16bb-
8aa-
8r
=31
8bb-
32ccc
32ddd
32eee-
32fff
16ggg
16fff
16aaa-
16fff
8ddd
8r
=32
12..eee-[
96eee-]
32fff
32ggg
32aaa-
8bbb-
8bbb-
8bbb
8bbb
=33
8cccc
8r
16cc
32dd
32ee
32ff
32gg
32aa-
32bb-
16ccc
16gg
16aa-
16ff
=34
16ee-
16bb-
16gg
16ee-
16b-
16g
16e-
16B-
16A-
16a-
16f
16d
=35
4e-
2r
=36
8.ee-
32ff
32ee-
8dd
8r
8cc
8r
=37
8.b-
32cc
32b-
8a-
8r
8g
8r
=38
16g
16f
16a-
16g
16b-
16a-
16cc
16b-
16a-
16g
16f
16e-
=39
4B-
2r
=40
8.ee-
32dd
32ee-
8ff
8r
8dd
8r
=41
8.gg
32ff
32gg
8aa-
8r
8ff
8r
=42
8.bb-
32bb-
32ccc
4ddd-
32ccc
32aa-
32gg
32ff
32ee
32ff
32aa-
32ff
=43
32ee-
32ff
32gg
32aa-
32bb-
32ccc
32bb-
32ccc
8bb-
8r
8dd
8r
=44
8.ee-
32dd
32ee-
8ff
8r
8dd
8r
=45
8.gg-
32ff
32gg-
8aa-
8r
8ff
8r
=46
8.bb-
32aa-
32bb-
4ccc-
8aa-
8ff
=47
8.ddd-
32ccc-
32ddd-
8eee-
8ccc-
8aa-
8ff
=48
2gg-
4ff-
=49
2ee-
4gg-
=50
4ff
4aa-
4gg-
=51
16ff
16gg-
16ff
16ee
16ff
16gg
16aa-
16gg
16aa-
16ccc
16bb-
16aa-
=52
8.gg
32ff
32gg
8aa-
8r
8ff
8r
=53
24b-
24dd
24ee-
24gg
24bb-
24eee-
8ddd
16ccc
16bb-
8aa-
16gg
16ff
=54
4ee-
4ff
8.aa-
32bb-
32ccc
=55
4ee-
8dd
8.r
16dd
16ee-
16ff
=56
8.gg
32ff
32gg
8aa-
8r
8ff
8r
=57
32ee-
32ff
32gg
32aa-
32bb-
32ccc
32ddd
32eee-
8ddd
16ccc
16bb-
8aa-
16gg
16ff
=58
8ee-
8ee
16ff
16gg
16aa-
16ff
8ee-
8dd
=59
4ee-
8r
8cc
8b-
8a-
=60
4g
8r
8a-
8g
8f
=61
8e-
8r
8g
8r
8b-
8r
=62
8ee-
3..r
24r
==
*-
